svgs/spowlo.svg

<svg width="192" height="192" viewBox="0 0 192 192" fill="none" xmlns="http://www.w3.org/2000/svg">
<path d="M170 47.0113C157.585 40.6125 143.501 37 128.573 37C78.551 37 38 77.5641 38 127.602C38 142.92 41.7915 157.35 48.5 170" stroke="black" stroke-width="12" stroke-linecap="round"/>
<path d="M138.639 116.571C132.545 110.476 122.665 110.476 116.571 116.571C110.476 122.665 110.476 132.545 116.571 138.639C122.665 144.734 132.545 144.734 138.639 138.639C144.734 132.545 144.734 122.665 138.639 116.571Z" stroke="black" stroke-width="12" stroke-linejoin="round"/>
<path d="M50.5 167.5L53.022 171.463C53.4456 172.129 52.9674 173 52.1783 173H47.5" stroke="black" stroke-width="6" stroke-linecap="round" stroke-linejoin="round"/>
<path d="M173 45.5V50C173 50.7136 172.274 51.1975 171.615 50.9231L167 49" stroke="black" stroke-width="6" stroke-linecap="round" stroke-linejoin="round"/>
<path d="M105.301 79.6159L73.387 93.1624C72.6846 93.4606 72.5615 94.4041 73.164 94.8724L101.27 116.721C101.888 117.201 102.794 116.817 102.878 116.038L106.686 80.6434C106.767 79.8846 106.003 79.3177 105.301 79.6159Z" stroke="black" stroke-width="10" stroke-linejoin="round"/>
<path d="M88.5 85.5C88.5 85.5 69.9427 45.5608 66.3695 41.3035C63.2103 37.5396 30 21.9785 30 21.9785" stroke="black" stroke-width="12" stroke-linecap="round" stroke-linejoin="round"/>
</svg>

<svg width="192" height="192" viewBox="0 0 192 192" fill="none" xmlns="http://www.w3.org/2000/svg"><path d="M170 47.011C157.585 40.612 143.501 37 128.573 37 78.551 37 38 77.564 38 127.602 38 142.92 41.791 157.35 48.5 170" stroke="#000" stroke-width="12" stroke-linecap="round"/><path d="M138.639 116.571c-6.094-6.095-15.974-6.095-22.068 0-6.095 6.094-6.095 15.974 0 22.068 6.094 6.095 15.974 6.095 22.068 0 6.095-6.094 6.095-15.974 0-22.068Z" stroke="#000" stroke-width="12" stroke-linejoin="round"/><path d="m50.5 167.5 2.522 3.963a1 1 0 0 1-.844 1.537H47.5M173 45.5V50a1 1 0 0 1-1.385.923L167 49" stroke="#000" stroke-width="6" stroke-linecap="round" stroke-linejoin="round"/><path d="M105.301 79.616 73.387 93.162a1 1 0 0 0-.223 1.71l28.106 21.849a1 1 0 0 0 1.608-.683l3.808-35.395a1 1 0 0 0-1.385-1.027Z" stroke="#000" stroke-width="10" stroke-linejoin="round"/><path d="M88.5 85.5S69.943 45.56 66.37 41.303C63.21 37.54 30 21.98 30 21.98" stroke="#000" stroke-width="12" stroke-linecap="round" stroke-linejoin="round"/></svg>
